img/students.svg

<svg fill="none" height="17" viewBox="0 0 16 17" width="16" xmlns="http://www.w3.org/2000/svg"><g fill="#1c8aa9"><path d="m3.625 3.46875c.54366 0 .98438-.44072.98438-.98437 0-.54366-.44072-.98438-.98438-.98438s-.98438.44072-.98438.98438c0 .54365.44072.98437.98438.98437z"/><path d="m8 3.46875c.54366 0 .98438-.44072.98438-.98437 0-.54366-.44072-.98438-.98438-.98438s-.98438.44072-.98438.98438c0 .54365.44072.98437.98438.98437z"/><path d="m12.375 3.46875c.5437 0 .9844-.44072.9844-.98437 0-.54366-.4407-.98438-.9844-.98438s-.9844.44072-.9844.98438c0 .54365.4407.98437.9844.98437z"/><path d="m1.21875 6.85938h.4375 3.9375.4375 3.9375.43745 3.9376.4374c.1204 0 .2188-.09844.2188-.21876 0-.12031-.0984-.21874-.2188-.21874h-.4593c-.0328-.67813-.0985-1.68438-.2297-1.89219-.1531-.25156-1.0938-.73281-1.0938-.73281l-.6343.59062-.6235-.59062s-.9297.47031-1.0937.73281c-.1313.20781-.1969 1.21406-.2297 1.89219h-.48126c-.03282-.67813-.09844-1.68438-.22969-1.89219-.15313-.25156-1.09375-.73281-1.09375-.73281l-.6125.59062-.63437-.59062s-.92969.47031-1.09375.73281c-.13125.20781-.19688 1.21406-.22969 1.89219h-.48125c-.03281-.67813-.09844-1.68438-.22969-1.89219-.15313-.25156-1.09375-.73281-1.09375-.73281l-.6125.59062-.63437-.59062s-.92969.47031-1.09376.73281c-.12031.20781-.18593 1.21406-.21875 1.89219h-.45937c-.12031 0-.21875.09843-.21875.21874 0 .12032.09844.21876.21875.21876z"/><path d="m8 11.8525c.78528 0 1.42188-.6366 1.42188-1.4225"/><path d="m10.5 14.0375c0-.8475-1.02885-1.5375-2.14423-1.5375h-.71154c-1.11538 0-2.14423.69-2.14423 1.5375v1.4625h5z"/></g></svg>

<svg width="16" height="17" viewBox="0 0 16 17" fill="none" xmlns="http://www.w3.org/2000/svg">
<path d="M3.625 3.46875C4.16866 3.46875 4.60938 3.02803 4.60938 2.48438C4.60938 1.94072 4.16866 1.5 3.625 1.5C3.08134 1.5 2.64062 1.94072 2.64062 2.48438C2.64062 3.02803 3.08134 3.46875 3.625 3.46875Z" fill="#1C8AA9"/>
<path d="M8 3.46875C8.54366 3.46875 8.98438 3.02803 8.98438 2.48438C8.98438 1.94072 8.54366 1.5 8 1.5C7.45634 1.5 7.01562 1.94072 7.01562 2.48438C7.01562 3.02803 7.45634 3.46875 8 3.46875Z" fill="#1C8AA9"/>
<path d="M12.375 3.46875C12.9187 3.46875 13.3594 3.02803 13.3594 2.48438C13.3594 1.94072 12.9187 1.5 12.375 1.5C11.8313 1.5 11.3906 1.94072 11.3906 2.48438C11.3906 3.02803 11.8313 3.46875 12.375 3.46875Z" fill="#1C8AA9"/>
<path d="M1.21875 6.85938H1.65625H5.59375H6.03125H9.96875H10.4062H14.3438H14.7812C14.9016 6.85938 15 6.76094 15 6.64062C15 6.52031 14.9016 6.42188 14.7812 6.42188H14.3219C14.2891 5.74375 14.2234 4.7375 14.0922 4.52969C13.9391 4.27813 12.9984 3.79688 12.9984 3.79688L12.3641 4.3875L11.7406 3.79688C11.7406 3.79688 10.8109 4.26719 10.6469 4.52969C10.5156 4.7375 10.45 5.74375 10.4172 6.42188H9.93594C9.90312 5.74375 9.8375 4.7375 9.70625 4.52969C9.55312 4.27813 8.6125 3.79688 8.6125 3.79688L8 4.3875L7.36563 3.79688C7.36563 3.79688 6.43594 4.26719 6.27188 4.52969C6.14063 4.7375 6.075 5.74375 6.04219 6.42188H5.56094C5.52813 5.74375 5.4625 4.7375 5.33125 4.52969C5.17812 4.27813 4.2375 3.79688 4.2375 3.79688L3.625 4.3875L2.99063 3.79688C2.99063 3.79688 2.06094 4.26719 1.89687 4.52969C1.77656 4.7375 1.71094 5.74375 1.67812 6.42188H1.21875C1.09844 6.42188 1 6.52031 1 6.64062C1 6.76094 1.09844 6.85938 1.21875 6.85938Z" fill="#1C8AA9"/>
<path d="M8 11.8525C8.78528 11.8525 9.42188 11.2159 9.42188 10.430:7C9.42188 9.64538 8.78528 9.00879 8 9.00879C7.21472 9.00879 6.57812 9.64538 6.57812 10.430:7C6.57812 11.2159 7.21472 11.8525 8 11.8525Z" fill="#1C8AA9"/>
<path d="M10.5 14.0375C10.5 13.19 9.47115 12.5 8.35577 12.5H7.64423C6.52885 12.5 5.5 13.19 5.5 14.0375V15.5H10.5V14.0375Z" fill="#1C8AA9"/>
</svg>
